; generated by PrusaSlicer 2.7.4+win64 on 2024-04-25 at 14:01:57 UTC


;
;

;
;

;
;

;
;
; 

; external perimeters extrusion width = 0.45mm
; perimeters extrusion width = 0.45mm
; infill extrusion width = 0.45mm
; solid infill extrusion width = 0.45mm
; top infill extrusion width = 0.40mm
; first layer extrusion width = 0.42mm

M73 P0 R48
M73 Q0 S48
M201 X2500 Y2500 Z400 E5000 ; sets maximum accelerations, mm/sec^2
M203 X180 Y180 Z12 E80 ; sets maximum feedrates, mm / sec
M204 P2000 R1250 T2500 ; sets acceleration (P, T) and retract acceleration (R), mm/sec^2
M205 X8.00 Y8.00 Z2.00 E10.00 ; sets the jerk limits, mm/sec
M205 S0 T0 ; sets the minimum extruding and travel feed rate, mm/sec

M486 S0
M486 ACap.stl
M486 S-1

;TYPE:Custom
M862.3 P "MINI" ; printer model check
G90 ; use absolute coordinates
M83 ; extruder relative mode
M104 S170 ; set extruder temp for bed leveling
M140 S60 ; set bed temp
M109 R170 ; wait for bed leveling temp
M190 S60 ; wait for bed temp
M204 T1250 ; set travel acceleration
G28 ; home all without mesh bed level
G29 ; mesh bed leveling 
M204 T2500 ; restore travel acceleration
M104 S215 ; set extruder temp
G92 E0
G1 Y-2 X179 F2400
G1 Z3 F720
M109 S215 ; wait for extruder temp

; intro line
G1 X170 F1000
G1 Z0.2 F720
G1 X110 E8 F900
G1 X40 E10 F700
G92 E0

M221 S95 ; set flow
G21 ; set units to millimeters
G90 ; use absolute coordinates
M83 ; use relative distances for extrusion

M900 K0.2 ; Filament gcode LA 1.5
; ; Filament gcode LA 1.0




M107
;LAYER_CHANGE
;Z:0.2
;HEIGHT:0.2
G1 E-3.2 F4200
G1 Z.4 F720
G1 X76.7 Y76.696 F9000
G1 Z.2 F720
G1 E3.2 F2400
M204 P600
;TYPE:Skirt/Brim
;WIDTH:0.42
G1 F1200
G3 X79.661 Y75.324 I3.352 J3.351 E.10446
G1 X100.6 Y75.353 E.65653
G3 X104.687 Y79.994 I-.659 J4.701 E.21117
G1 X104.685 Y100.151 E.63201
G3 X100.158 Y104.683 I-4.731 J-.199 E.22058
G1 X79.849 Y104.685 E.63677
G3 X75.317 Y100.158 I.199 J-4.731 E.22058
G1 X75.317 Y79.842 E.63699
G3 X76.658 Y76.738 I4.735 J.205 E.10841
M204 P1000
G1 X76.658 Y76.738 F9000
G1 X76.926 Y76.999
M204 P600
G1 F1200
G3 X79.739 Y75.696 I3.114 J3.037 E.09939
G1 X100.002 Y75.69 E.63533
G1 X100.811 Y75.768 E.02548
G3 X104.265 Y79.377 I-.86 J4.281 E.16675
G1 X104.304 Y100.261 E.6548
G3 X100.005 Y104.31 I-4.362 J-.323 E.20327
G1 X79.739 Y104.304 E.63543
G3 X75.69 Y100.005 I.323 J-4.362 E.20327
G1 X75.693 Y79.863 E.63154
G3 X76.884 Y77.042 I4.347 J.173 E.09811
M204 P1000
G1 E-2.24 F4200
;WIPE_START
G1 F7200
G1 X76.926 Y76.999 E-.03331
G3 X78.292 Y76.053 I3.114 J3.037 E-.92669
;WIPE_END
G1 Z.4 F720
M486 S0
G1 X79.925 Y79.966 F9000
G1 Z.2 F720
G1 E3.2 F2400
M204 P600
;TYPE:Perimeter
;WIDTH:0.419999
G1 F1200
G1 X80.072 Y79.907 E.00497
G1 X99.985 Y79.914 E.62436
G1 X100.081 Y79.976 E.00358
G1 X100.092 Y99.906 E.62489
G3 X99.962 Y100.093 I-.173 J.018 E.00779
M73 P1 R48
M73 Q1 S48
G1 X80.094 Y100.093 E.62295
G3 X79.907 Y99.962 I-.018 J-.174 E.00781
G1 X79.907 Y80.094 E.62295
G1 X79.917 Y80.026 E.00216
M204 P1000
G1 X79.917 Y80.026 F9000
G1 X79.728 Y79.63
M204 P600
;TYPE:External perimeter
G1 F1200
G1 X80.028 Y79.53 E.00992
G1 X99.986 Y79.536 E.62577
G1 X100.205 Y79.583 E.00702
G3 X100.458 Y79.969 I-.32 J.485 E.01488
G1 X100.47 Y99.906 E.62511
G1 X100.413 Y100.211 E.00973
G3 X100.008 Y100.47 I-.521 J-.369 E.01545
G1 X80.094 Y100.47 E.62439
G1 X79.789 Y100.413 E.00973
G3 X79.53 Y100.008 I.369 J-.521 E.01545
G1 X79.53 Y80.094 E.62439
G1 X79.576 Y79.809 E.00905
G1 X79.689 Y79.676 E.00547
M204 P1000
G1 E-2.24 F4200
;WIPE_START
G1 F7200
G1 X79.728 Y79.63 E-.03342
G1 X80.028 Y79.53 E-.17524
G1 X81.384 Y79.53 E-.75134
;WIPE_END
G1 Z.4 F720
G1 X99.912 Y80.852 F9000
G1 Z.2 F720
G1 E3.2 F2400
M204 P600
;TYPE:Solid infill
;WIDTH:0.422745
G1 F1200
G1 X99.313 Y80.253 E.02675
G1 X98.776 Y80.253 E.01696
G1 X99.742 Y81.219 E.04315
G1 X99.743 Y81.757 E.01699
G1 X98.238 Y80.252 E.06722
G1 X97.701 Y80.252 E.01696
G1 X99.743 Y82.294 E.0912
G1 X99.743 Y82.832 E.01699
G1 X97.164 Y80.252 E.11521
G1 X96.626 Y80.252 E.01699
G1 X99.744 Y83.369 E.13924
G1 X99.744 Y83.907 E.01699
G1 X96.089 Y80.252 E.16325
G1 X95.552 Y80.252 E.01696
G1 X99.744 Y84.444 E.18723
G1 X99.745 Y84.982 E.01699
G1 X95.014 Y80.251 E.21131
G1 X94.477 Y80.251 E.01696
G1 X99.745 Y85.519 E.23529
G1 X99.745 Y86.057 E.01699
G1 X93.94 Y80.251 E.2593
G1 X93.402 Y80.251 E.01699
G1 X99.746 Y86.594 E.28333
G1 X99.746 Y87.131 E.01696
G1 X92.865 Y80.251 E.30731
G1 X92.328 Y80.251 E.01696
G1 X99.746 Y87.669 E.33132
G1 X99.746 Y88.206 E.01696
G1 X91.79 Y80.25 E.35535
G1 X91.253 Y80.25 E.01696
G1 X99.747 Y88.744 E.37938
G1 X99.747 Y89.281 E.01696
G1 X90.716 Y80.25 E.40337
G1 X90.178 Y80.25 E.01699
G1 X99.747 Y89.819 E.42739
G1 X99.748 Y90.356 E.01696
G1 X89.641 Y80.25 E.4514
G1 X89.104 Y80.25 E.01696
G1 X99.748 Y90.894 E.47541
G1 X99.748 Y91.431 E.01696
G1 X88.567 Y80.249 E.49942
G1 X88.029 Y80.249 E.01699
G1 X99.749 Y91.969 E.52347
G1 X99.749 Y92.506 E.01696
G1 X87.492 Y80.249 E.54745
G1 X86.955 Y80.249 E.01696
M73 P1 R47
M73 Q1 S47
G1 X99.749 Y93.044 E.57146
G1 X99.75 Y93.581 E.01696
G1 X86.417 Y80.249 E.59549
G1 X85.88 Y80.249 E.01696
G1 X99.75 Y94.118 E.61947
G1 X99.75 Y94.656 E.01699
G1 X85.343 Y80.248 E.6435
G1 X84.805 Y80.248 E.01699
G1 X99.75 Y95.193 E.66751
G1 X99.751 Y95.731 E.01699
G1 X84.268 Y80.248 E.69154
G1 X83.731 Y80.248 E.01696
G1 X99.751 Y96.268 E.71553
G1 X99.751 Y96.806 E.01699
G1 X83.193 Y80.248 E.73955
G1 X82.656 Y80.248 E.01696
G1 X99.752 Y97.343 E.76356
G1 X99.752 Y97.881 E.01699
G1 X82.119 Y80.247 E.78759
G1 X81.581 Y80.247 E.01699
M73 P2 R47
M73 Q2 S47
G1 X99.752 Y98.418 E.8116
G1 X99.753 Y98.956 E.01699
G1 X81.044 Y80.247 E.83563
G1 X80.507 Y80.247 E.01696
G1 X99.753 Y99.493 E.85961
G1 X99.753 Y99.753 E.00821
G1 X99.476 Y99.753 E.00875
G1 X80.247 Y80.524 E.85885
G1 X80.247 Y81.061 E.01696
G1 X98.939 Y99.753 E.83487
G1 X98.402 Y99.753 E.01696
G1 X80.247 Y81.598 E.81088
G1 X80.247 Y82.136 E.01699
G1 X97.864 Y99.753 E.78685
G1 X97.327 Y99.753 E.01696
G1 X80.247 Y82.673 E.76287
G1 X80.247 Y83.21 E.01696
G1 X96.79 Y99.753 E.73888
G1 X96.253 Y99.753 E.01696
G1 X80.247 Y83.747 E.7149
G1 X80.247 Y84.284 E.01696
G1 X95.716 Y99.753 E.69092
G1 X95.179 Y99.753 E.01696
G1 X80.247 Y84.821 E.66693
G1 X80.247 Y85.358 E.01696
G1 X94.641 Y99.753 E.64292
G1 X94.104 Y99.753 E.01696
G1 X80.247 Y85.896 E.61892
G1 X80.247 Y86.433 E.01696
G1 X93.567 Y99.753 E.59493
G1 X93.03 Y99.753 E.01696
G1 X80.247 Y86.97 E.57095
G1 X80.247 Y87.507 E.01696
G1 X92.493 Y99.753 E.54696
G1 X91.956 Y99.753 E.01696
G1 X80.247 Y88.044 E.52298
G1 X80.247 Y88.581 E.01696
G1 X91.419 Y99.753 E.49899
G1 X90.881 Y99.753 E.01699
G1 X80.247 Y89.119 E.47496
G1 X80.247 Y89.656 E.01696
G1 X90.344 Y99.753 E.45098
G1 X89.807 Y99.753 E.01696
G1 X80.247 Y90.193 E.42699
G1 X80.247 Y90.73 E.01696
G1 X89.27 Y99.753 E.40301
G1 X88.733 Y99.753 E.01696
G1 X80.247 Y91.267 E.37902
G1 X80.247 Y91.804 E.01696
G1 X88.196 Y99.753 E.35504
G1 X87.658 Y99.753 E.01699
G1 X80.247 Y92.341 E.33103
G1 X80.247 Y92.879 E.01699
G1 X87.121 Y99.753 E.30702
G1 X86.584 Y99.753 E.01696
G1 X80.247 Y93.416 E.28304
G1 X80.247 Y93.953 E.01696
G1 X86.047 Y99.753 E.25905
G1 X85.51 Y99.753 E.01696
G1 X80.247 Y94.49 E.23507
G1 X80.247 Y95.027 E.01696
G1 X84.973 Y99.753 E.21108
G1 X84.436 Y99.753 E.01696
M73 P3 R47
M73 Q3 S47
G1 X80.247 Y95.564 E.1871
G1 X80.247 Y96.102 E.01699
G1 X83.898 Y99.753 E.16307
G1 X83.361 Y99.753 E.01696
G1 X80.247 Y96.639 E.13909
G1 X80.247 Y97.176 E.01696
G1 X82.824 Y99.753 E.1151
G1 X82.287 Y99.753 E.01696
G1 X80.247 Y97.713 E.09112
G1 X80.247 Y98.25 E.01696
G1 X81.75 Y99.753 E.06713
G1 X81.213 Y99.753 E.01696
G1 X80.247 Y98.787 E.04315
G1 X80.247 Y99.324 E.01696
G1 X80.845 Y99.923 E.02673
M204 P1000
M106 S84.15
;LAYER_CHANGE
;Z:0.4
;HEIGHT:0.2
;BEFORE_LAYER_CHANGE
G92 E0.0
;0.4


G1 E-2.24 F4200
;WIPE_START
G1 F7200
G1 X80.247 Y99.324 E-.46905
G1 X80.247 Y98.787 E-.29759
G1 X80.494 Y99.034 E-.19336
;WIPE_END
G1 Z.4 F720
;AFTER_LAYER_CHANGE
;0.4
M104 S210 ; set temperature
M486 S-1
G1 Z.6
G1 X75.317 Y99.034 F9000
G1 Z.4 F720
G1 E3.2 F2400
;TYPE:Skirt/Brim
;WIDTH:0.42
G1 X75.317 Y79.842 E.60175
G3 X79.661 Y75.324 I4.735 J.205 E.21471
G1 X100.6 Y75.353 E.65653
G3 X104.687 Y79.994 I-.659 J4.701 E.21117
G1 X104.685 Y100.151 E.63201
G3 X100.158 Y104.683 I-4.731 J-.199 E.22058
G1 X79.849 Y104.685 E.63677
G3 X75.317 Y100.158 I.199 J-4.731 E.22058
G1 X75.317 Y99.094 E.03336
G1 X75.317 Y99.094 F9000
G1 X75.69 Y99.094
G1 F2400
G1 X75.693 Y79.863 E.60297
G3 X79.739 Y75.696 I4.347 J.173 E.1994
G1 X100.002 Y75.69 E.63533
G1 X100.811 Y75.768 E.02548
G3 X104.265 Y79.377 I-.86 J4.281 E.16675
G1 X104.304 Y100.261 E.6548
G3 X100.005 Y104.31 I-4.362 J-.323 E.20327
G1 X79.739 Y104.304 E.63543
G3 X75.69 Y100.005 I.323 J-4.362 E.20327
G1 X75.69 Y99.154 E.02668
G1 E-2.24 F4200
;WIPE_START
G1 F7200
G1 X75.69 Y99.094 E-.03325
G1 X75.69 Y97.422 E-.92675
;WIPE_END
G1 Z.6 F720
M486 S0
G1 X79.596 Y79.243 F9000
G1 Z.4 F720
G1 E3.2 F2400
;TYPE:Perimeter
;WIDTH:0.449999
G1 F1200
G3 X79.99 Y79.121 I.619 J1.295 E.01401
G1 F1179.277
G1 X80.932 Y79.113 E.03189
G1 F1181.667
G1 X98.971 Y79.115 E.6106
G1 F1186.498
G1 X99.876 Y79.115 E.03063
G1 X100.371 Y79.202 E.01701
G1 F1192.635
G1 X100.379 Y79.207 E.00032
G1 F1200
G3 X100.814 Y79.677 I-.491 J.892 E.02205
G1 F1186.048
G1 X100.824 Y79.693 E.00064
G1 F1181.275
G1 X100.887 Y80.142 E.01535
G1 X100.887 Y98.765 E.63037
G1 F1179.985
G3 X100.863 Y100.168 I-18.367 J.382 E.04751
G1 F1169.722
G1 X100.721 Y100.506 E.01241
G1 X100.662 Y100.57 E.00295
G1 F1200
G3 X100.301 Y100.821 I-.844 J-.829 E.01497
G1 F1177.48
G1 X100.271 Y100.839 E.00118
G1 X99.688 Y100.887 E.0198
G1 F1181.003
G1 X80.328 Y100.887 E.65531
G1 X79.832 Y100.863 E.01681
G1 F1169.722
G1 X79.494 Y100.721 E.01241
G1 X79.43 Y100.662 E.00295
G1 F1200
G3 X79.179 Y100.301 I.829 J-.844 E.01497
G1 F1177.48
G1 X79.161 Y100.271 E.00118
G1 X79.113 Y99.688 E.0198
G1 F1181.003
G1 X79.113 Y98.78 E.03073
G1 F1183.103
G1 X79.113 Y80.96 E.60318
G1 F1181.084
G1 X79.12 Y80.024 E.03168
G1 F1200
G1 X79.224 Y79.596 E.01491
G1 X79.416 Y79.348 E.01062
G1 F1189.8
G1 X79.449 Y79.325 E.00136
G3 X79.543 Y79.27 I.766 J1.213 E.00369
G1 X79.543 Y79.27 F9000
G1 X79.353 Y78.897
;TYPE:Overhang perimeter
G1 F900
G1 X79.726 Y78.74 E.0137
G1 X79.999 Y78.706 E.00931
G1 X81.314 Y78.706 E.04451
G1 X98.564 Y78.708 E.58389
G1 X99.876 Y78.708 E.04441
G1 X100.392 Y78.789 E.01768
G3 X100.986 Y79.178 I-.333 J1.156 E.0244
G1 X101.215 Y79.566 E.01525
G1 X101.294 Y80.142 E.01968
G1 X101.294 Y81.456 E.04448
G1 X101.294 Y98.358 E.57211
G3 X101.26 Y100.274 I-22.443 J.552 E.06488
G1 X101.073 Y100.72 E.01637
G1 X100.919 Y100.904 E.00812
G1 X100.569 Y101.148 E.01444
G1 X100.236 Y101.261 E.0119
G3 X98.378 Y101.294 I-1.308 J-21.264 E.06292
G1 X81.642 Y101.294 E.56649
G3 X79.726 Y101.26 I-.552 J-22.441 E.06488
G1 X79.28 Y101.073 E.01637
G1 X79.096 Y100.919 E.00812
G1 X78.852 Y100.569 E.01444
G1 X78.739 Y100.236 E.0119
G3 X78.706 Y98.378 I21.251 J-1.307 E.06292
G1 X78.706 Y81.456 E.57279
G1 X78.706 Y80.142 E.04448
G1 X78.785 Y79.566 E.01968
G1 X78.922 Y79.287 E.01052
G1 X79.28 Y78.927 E.01719
G1 X79.297 Y78.92 E.00062
G1 X79.297 Y78.92 F9000
G1 X80.082 Y79.48
M204 P1500
;TYPE:Solid infill
G1 F8400
G1 X79.48 Y80.082 E.02882
G1 X79.48 Y80.658 E.0195
G1 X80.659 Y79.479 E.05644
G1 X81.234 Y79.479 E.01946
G1 X79.48 Y81.234 E.08399
G1 X79.48 Y81.81 E.0195
G1 X81.81 Y79.479 E.11156
G1 X82.386 Y79.479 E.0195
G1 X79.48 Y82.385 E.13911
G1 X79.48 Y82.961 E.0195
G1 X82.961 Y79.479 E.16666
G1 X83.537 Y79.479 E.0195
G1 X79.48 Y83.537 E.19423
G1 X79.48 Y84.112 E.01946
G1 X84.113 Y79.48 E.22175
G1 X84.688 Y79.48 E.01946
G1 X79.48 Y84.688 E.2493
G1 X79.48 Y85.264 E.0195
M73 P3 R46
M73 Q3 S46
G1 X85.264 Y79.48 E.27688
G1 X85.839 Y79.48 E.01946
G1 X79.48 Y85.84 E.30443
G1 X79.48 Y86.415 E.01946
G1 X86.415 Y79.48 E.33197
G1 X86.991 Y79.48 E.0195
G1 X79.48 Y86.991 E.35955
G1 X79.48 Y87.567 E.0195
G1 X87.566 Y79.48 E.3871
G1 X88.142 Y79.48 E.0195
G1 X79.48 Y88.142 E.41464
G1 X79.48 Y88.718 E.0195
G1 X88.717 Y79.48 E.44219
G1 X89.293 Y79.48 E.0195
G1 X79.48 Y89.294 E.46977
G1 X79.479 Y89.869 E.01946
G1 X89.869 Y79.48 E.49734
G1 X90.444 Y79.48 E.01946
G1 X79.479 Y90.445 E.52489
G1 X79.479 Y91.021 E.0195
G1 X91.02 Y79.48 E.55246
G1 X91.596 Y79.48 E.0195
G1 X79.479 Y91.597 E.58003
G1 X79.479 Y92.172 E.01946
G1 X92.171 Y79.481 E.60753
G1 X92.747 Y79.481 E.0195
G1 X79.479 Y92.748 E.63511
G1 X79.479 Y93.324 E.0195
G1 X93.322 Y79.481 E.66266
G1 X93.898 Y79.481 E.0195
G1 X79.479 Y93.899 E.6902
G1 X79.479 Y94.475 E.0195
G1 X94.474 Y79.481 E.71778
G1 X95.049 Y79.481 E.01946
G1 X79.479 Y95.051 E.74533
G1 X79.479 Y95.627 E.0195
G1 X95.625 Y79.481 E.7729
G1 X96.201 Y79.481 E.0195
G1 X79.479 Y96.202 E.80045
G1 X79.479 Y96.778 E.0195
G1 X96.776 Y79.481 E.828
G1 X97.352 Y79.481 E.0195
G1 X79.479 Y97.354 E.85557
G1 X79.479 Y97.929 E.01946
G1 X97.927 Y79.481 E.88309
G1 X98.503 Y79.481 E.0195
G1 X79.479 Y98.505 E.91067
G1 X79.479 Y99.081 E.0195
G1 X99.079 Y79.481 E.93824
G1 X99.654 Y79.482 E.01946
G1 X79.479 Y99.656 E.96574
G1 X79.526 Y100.185 E.01798
G1 X100.178 Y79.534 E.98857
G1 X100.473 Y79.814 E.01377
G1 X79.825 Y100.462 E.98841
G1 X80.342 Y100.521 E.01761
G1 X100.52 Y80.343 E.96591
G1 X100.52 Y80.918 E.01946
G1 X80.918 Y100.521 E.93836
G1 X81.493 Y100.521 E.01946
G1 X100.52 Y81.494 E.91081
G1 X100.52 Y82.07 E.0195
G1 X82.069 Y100.521 E.88324
G1 X82.645 Y100.521 E.0195
G1 X100.52 Y82.645 E.85569
G1 X100.52 Y83.221 E.0195
G1 X83.22 Y100.521 E.82814
G1 X83.796 Y100.521 E.0195
G1 X100.521 Y83.797 E.80059
G1 X100.521 Y84.372 E.01946
G1 X84.372 Y100.521 E.77304
G1 X84.948 Y100.521 E.0195
G1 X100.521 Y84.948 E.74547
G1 X100.521 Y85.524 E.0195
G1 X85.523 Y100.521 E.71792
G1 X86.099 Y100.521 E.0195
G1 X100.521 Y86.099 E.69037
M73 P4 R46
M73 Q4 S46
G1 X100.521 Y86.675 E.0195
G1 X86.675 Y100.521 E.6628
G1 X87.25 Y100.521 E.01946
G1 X100.521 Y87.251 E.63525
G1 X100.521 Y87.826 E.01946
G1 X87.826 Y100.521 E.6077
G1 X88.402 Y100.521 E.0195
G1 X100.521 Y88.402 E.58013
G1 X100.521 Y88.978 E.0195
G1 X88.978 Y100.521 E.55256
G1 X89.553 Y100.521 E.01946
G1 X100.521 Y89.553 E.52503
G1 X100.521 Y90.129 E.0195
G1 X90.129 Y100.521 E.49746
G1 X90.705 Y100.521 E.0195
G1 X100.521 Y90.705 E.46989
G1 X100.521 Y91.28 E.01946
G1 X91.28 Y100.521 E.44236
G1 X91.856 Y100.521 E.0195
G1 X100.521 Y91.856 E.41479
G1 X100.521 Y92.432 E.0195
G1 X92.432 Y100.521 E.38722
G1 X93.007 Y100.521 E.01946
G1 X100.521 Y93.007 E.35969
G1 X100.521 Y93.583 E.0195
G1 X93.583 Y100.521 E.33212
G1 X94.159 Y100.521 E.0195
G1 X100.521 Y94.159 E.30454
G1 X100.521 Y94.734 E.01946
G1 X94.735 Y100.521 E.277
G1 X95.31 Y100.521 E.01946
G1 X100.521 Y95.31 E.24945
G1 X100.521 Y95.886 E.0195
G1 X95.886 Y100.521 E.22187
G1 X96.462 Y100.521 E.0195
G1 X100.521 Y96.462 E.1943
G1 X100.521 Y97.037 E.01946
G1 X97.037 Y100.521 E.16678
G1 X97.613 Y100.521 E.0195
G1 X100.521 Y97.613 E.1392
G1 X100.521 Y98.189 E.0195
G1 X98.189 Y100.521 E.11163
G1 X98.765 Y100.521 E.0195
G1 X100.521 Y98.764 E.08408
G1 X100.521 Y99.34 E.0195
G1 X99.34 Y100.521 E.05653
G1 X99.922 Y100.515 E.0197
G1 X100.521 Y99.916 E.02867
M204 P1000
M106 S170.85
;LAYER_CHANGE
;Z:0.6
;HEIGHT:0.2
;BEFORE_LAYER_CHANGE
G92 E0.0
;0.6


G1 E-2.24 F4200
;WIPE_START
G1 F7200
G1 X99.922 Y100.515 E-.46944
G1 X99.34 Y100.521 E-.32254
G1 X99.554 Y100.307 E-.16802
;WIPE_END
G1 Z.6 F720
;AFTER_LAYER_CHANGE
;0.6
M486 S-1
G1 Z.8
G1 X99.554 Y104.683 F9000
G1 Z.6 F720
G1 E3.2 F2400
;TYPE:Skirt/Brim
;WIDTH:0.42
G1 X79.849 Y104.685 E.61784
G3 X75.317 Y100.158 I.199 J-4.731 E.22058
G1 X75.317 Y79.842 E.63699
G3 X79.661 Y75.324 I4.735 J.205 E.21471
G1 X100.6 Y75.353 E.65653
G3 X104.687 Y79.994 I-.659 J4.701 E.21117
G1 X104.685 Y100.151 E.63201
G3 X100.158 Y104.683 I-4.731 J-.199 E.22058
G1 X99.614 Y104.683 E.01706
G1 X99.614 Y104.683 F9000
G1 X99.615 Y104.31
G1 F2400
G1 X79.739 Y104.304 E.6232
G3 X75.69 Y100.005 I.323 J-4.362 E.20327
G1 X75.693 Y79.863 E.63154
G3 X79.739 Y75.696 I4.347 J.173 E.1994
G1 X100.002 Y75.69 E.63533
G1 X100.811 Y75.768 E.02548
G3 X104.265 Y79.377 I-.86 J4.281 E.16675
G1 X104.304 Y100.261 E.6548
G3 X100.005 Y104.31 I-4.362 J-.323 E.20327
